X:1
T:Title
%%score ( 1 2 ) ( 3 4 )
L:1/8
Q:1/4=100
M:4/4
K:Bb
V:1 treble nm="Tubular Bells, Soprano"
V:2 treble 
V:3 bass nm="Choir Pad, Ring, Sweet Bells"
V:4 bass 
V:1
 [B,D]>[CE] [DF]2 [DB]2 [EA]>[EA] | z2 d4 z2 | z8 | [GB]>[^Fc] [=Fd]6 | %4
w: By~Ira~Bishop~Wilson * * * * *||||
 [Fd]>[Fd] [Fd]2 [Ec]2 [EG]>[EG] | [EA]>[Ec] [DB]4 [Fd]2- | [Fd]2 [Fc]2 [FA]2 [=EB]>[EB] | %7
w: |||
 [=EA]>[EG] z2 z4 | E2 [DF]2 [DG]2 [DF-]2 | (3FFB [Fd]2 [Ge]2 [Fd]2- | %10
w: |||
 (3[DFd-][Fd]-[FBd] [Fd]2 [Ec]2 [EG]2 | [EA]2 [Dc]2 [DB]2 [_DA]2 | [_DG]2 [=DF]2 [DG]2 F2- | %13
w: |||
 (3FFB [Fd]2 [Ge]2 [Fd]2- | (3[DFd-][Fd]-[FBd] [Fd]2 [Ec]>[EF] [Fd]2 | [Ec]2 [DB]6- | %16
w: |||
 [DB]2 z2 z4 |] %17
w: |
V:2
 x8 | [EB]>[Ec] D2 F2 [DB]2- | [DB]2 [EB]2 [EB]2 [Ge]>[Ge] | x8 | x8 | x8 | x8 | z2 F6- | %8
 F2 z2 z4 | D2 z2 z4 | x8 | x8 | z4 z2 D2 | D2 z2 z4 | x8 | x8 | x8 |] %17
V:3
 [B,,F,]>[B,,F,] [B,,B,]2 [B,,F,]2 F,>F, | [F,G,]>[F,A,] [B,,B,]4 F,2 | %2
 _A,2 [E,G,]2 [E,G,]2 [E,B,]>[E,B,] | [E,B,]>[E,B,] z2 F,2 D,2 | %4
 [B,,B,]>[B,,B,] [F,B,]2 [F,A,]2 [F,C]>[F,C] | [F,C]>[F,A,] z2 F,D, [B,,B,]2- | %6
 [B,,B,]2 [C,A,]2 [C,C]2 [C,G,]>[C,G,] | z2 [F,A,]6- | [F,A,]2 z2 z2 B,2 | z8 | z8 | %11
 F,2 [B,,F,]2 [B,,F,]2 =E,2 | z4 z2 B,2 | z8 | z8 | F,2 [B,,F,]6- | [B,,F,]2 z2 z4 |] %17
V:4
 x8 | z4 z2 B,,2- | B,,2 z2 z4 | z2 [B,,B,]6 | x8 | z2 [B,,B,]4 z2 | x8 | [C,C]>[C,B,] z2 E,2 D,2 | %8
 C,2 [B,,B,]2 [B,,F,]2 B,,2- | [B,,F,]2 B,2 B,2 B,2- | B,2 [F,B,]2 [F,A,]2 [F,A,]2 | x8 | %12
 [B,,=E,]2 [B,,F,]2 [B,,B,]2 B,,2- | [B,,F,]2 B,2 B,2 B,2- | B,2 [F,B,]2 [F,A,]>[F,A,] [F,A,]2 | %15
 x8 | x8 |] %17

